; generated by Slic3r 1.1.7 on 2014-11-29 at 18:59:22

; perimeters extrusion width = 0.50mm
; infill extrusion width = 0.52mm
; solid infill extrusion width = 0.52mm
; top infill extrusion width = 0.52mm

G21 ; set units to millimeters
M107
M104 S200 ; set temperature
G28 ; home all axes
G1 Z5 F5000 ; lift nozzle

M109 S200 ; wait for temperature to be reached
G90 ; use absolute coordinates
G92 E0
M82 ; use absolute distances for extrusion
G1 F1800.000 E-1.00000
G92 E0
G1 Z0.350 F7800.000
G1 X47.759 Y124.205 F7800.000
G1 E1.00000 F1800.000
G1 X49.914 Y123.404 E1.07480 F600.000
G1 X51.122 Y123.293 E1.11426
G1 X148.878 Y123.293 E4.29478
G1 X151.143 Y123.690 E4.36958
G1 X153.137 Y124.834 E4.44438 F600.000
G1 X154.624 Y126.588 E4.51918
G1 X155.425 Y128.743 E4.59398
G1 X155.535 Y129.951 E4.63344
G1 X155.535 Y130.550 E4.65296
G1 X155.138 Y132.815 E4.72776
G1 X153.995 Y134.809 E4.80256
G1 X152.241 Y136.296 E4.87736
G1 X150.086 Y137.097 E4.95216
G1 X148.878 Y137.208 E4.99162
G1 X51.122 Y137.208 E8.17214
G1 X48.857 Y136.811 E8.24694
G1 X46.863 Y135.667 E8.32174
G1 X45.376 Y133.913 E8.39654
G1 X44.575 Y131.758 E8.47135
G1 X44.465 Y130.550 E8.51080
G1 X44.465 Y129.951 E8.53032
G1 X44.862 Y127.686 E8.60512
G1 X46.005 Y125.692 E8.67992
G1 X47.702 Y124.254 E8.75228
G1 F1800.000 E7.75228
G92 E0
G1 X148.878 Y130.250 F7800.000
G1 E1.00000 F1800.000
G1 X145.324 Y130.250 E1.11565 F600.000
G1 F1800.000 E0.11565
G92 E0
G1 X54.676 Y130.250 F7800.000
G1 E1.00000 F1800.000
G1 X51.122 Y130.250 E1.11565 F600.000
M106 S255
G1 F1800.000 E0.11565
G92 E0
G1 Z0.750 F7800.000
G1 X150.232 Y130.250 F7800.000
G1 E1.00000 F1800.000
G1 X143.970 Y130.250 E1.17716 F600.000
G1 F1800.000 E0.17716
G92 E0
G1 X56.030 Y130.250 F7800.000
G1 E1.00000 F1800.000
G1 X49.768 Y130.250 E1.17716 F600.000
G1 F1800.000 E0.17716
G92 E0
G1 Z1.150 F7800.000
G1 X151.281 Y130.250 F7800.000
G1 E1.00000 F1800.000
G1 X142.921 Y130.250 E1.23654 F600.000
G1 F1800.000 E0.23654
G92 E0
G1 X57.079 Y130.250 F7800.000
G1 E1.00000 F1800.000
G1 X48.719 Y130.250 E1.23654 F600.000
G1 F1800.000 E0.23654
G92 E0
G1 Z1.550 F7800.000
G1 X47.971 Y130.250 F7800.000
G1 E1.00000 F1800.000
G1 X57.827 Y130.251 E1.27889 F600.000
G1 F1800.000 E0.27889
G92 E0
G1 X142.173 Y130.251 F7800.000
G1 E1.00000 F1800.000
G1 X152.029 Y130.250 E1.27889 F600.000
G1 F1800.000 E0.27889
G92 E0
G1 Z1.950 F7800.000
G1 X141.466 Y130.251 F7800.000
G1 E1.00000 F1800.000
G1 X152.736 Y130.250 E1.31885 F600.000
G1 F1800.000 E0.31885
G92 E0
G1 X47.264 Y130.250 F7800.000
G1 E1.00000 F1800.000
G1 X58.534 Y130.251 E1.31885 F600.000
G1 F1800.000 E0.31885
G92 E0
G1 Z2.350 F7800.000
G1 X140.979 Y130.251 F7800.000
G1 E1.00000 F1800.000
G1 X153.223 Y130.250 E1.34643 F600.000
G1 F1800.000 E0.34643
G92 E0
G1 X59.021 Y130.251 F7800.000
G1 E1.00000 F1800.000
G1 X46.777 Y130.250 E1.34643 F600.000
G1 F1800.000 E0.34643
G92 E0
G1 Z2.750 F7800.000
G1 X59.508 Y130.250 F7800.000
G1 E1.00000 F1800.000
G1 X46.290 Y130.250 E1.37401 F600.000
G1 F1800.000 E0.37401
G92 E0
G1 X153.710 Y130.250 F7800.000
G1 E1.00000 F1800.000
G1 X140.492 Y130.250 E1.37401 F600.000
G1 F1800.000 E0.37401
G92 E0
G1 Z3.150 F7800.000
G1 X59.987 Y130.250 F7800.000
G1 E1.00000 F1800.000
G1 X45.811 Y130.250 E1.40112 F600.000
G1 F1800.000 E0.40112
G92 E0
G1 X154.189 Y130.250 F7800.000
G1 E1.00000 F1800.000
G1 X140.013 Y130.250 E1.40112 F600.000
G1 F1800.000 E0.40112
G92 E0
G1 Z3.550 F7800.000
G1 X60.316 Y130.250 F7800.000
G1 E1.00000 F1800.000
G1 X45.482 Y130.250 E1.41970 F600.000
G1 F1800.000 E0.41970
G92 E0
G1 X154.518 Y130.250 F7800.000
G1 E1.00000 F1800.000
G1 X139.684 Y130.250 E1.41970 F600.000
G1 F1800.000 E0.41970
G92 E0
G1 Z3.950 F7800.000
G1 X60.644 Y130.250 F7800.000
G1 E1.00000 F1800.000
G1 X45.154 Y130.250 E1.43827 F600.000
G1 F1800.000 E0.43827
G92 E0
G1 X154.846 Y130.250 F7800.000
G1 E1.00000 F1800.000
G1 X139.356 Y130.250 E1.43827 F600.000
G1 F1800.000 E0.43827
G92 E0
G1 Z4.350 F7800.000
G1 X60.972 Y130.250 F7800.000
G1 E1.00000 F1800.000
G1 X44.826 Y130.250 E1.45685 F600.000
G1 F1800.000 E0.45685
G92 E0
G1 X155.174 Y130.250 F7800.000
G1 E1.00000 F1800.000
G1 X139.028 Y130.250 E1.45685 F600.000
G1 F1800.000 E0.45685
G92 E0
G1 Z4.750 F7800.000
G1 X61.270 Y130.250 F7800.000
G1 E1.00000 F1800.000
G1 X44.528 Y130.250 E1.47371 F600.000
G1 F1800.000 E0.47371
G92 E0
G1 X155.472 Y130.250 F7800.000
G1 E1.00000 F1800.000
G1 X138.730 Y130.250 E1.47371 F600.000
G1 F1800.000 E0.47371
G92 E0
G1 Z5.150 F7800.000
G1 X155.686 Y130.250 F7800.000
G1 E1.00000 F1800.000
G1 X138.516 Y130.250 E1.48581 F600.000
G1 F1800.000 E0.48581
G92 E0
G1 X61.484 Y130.250 F7800.000
G1 E1.00000 F1800.000
G1 X44.314 Y130.250 E1.48581 F600.000
G1 F1800.000 E0.48581
G92 E0
G1 Z5.550 F7800.000
G1 X155.900 Y130.250 F7800.000
G1 E1.00000 F1800.000
G1 X138.302 Y130.250 E1.49791 F600.000
G1 F1800.000 E0.49791
G92 E0
G1 X61.698 Y130.250 F7800.000
G1 E1.00000 F1800.000
G1 X44.100 Y130.250 E1.49791 F600.000
G1 F1800.000 E0.49791
G92 E0
G1 Z5.950 F7800.000
G1 X156.114 Y130.250 F7800.000
G1 E1.00000 F1800.000
G1 X138.088 Y130.250 E1.51001 F600.000
G1 F1800.000 E0.51001
G92 E0
G1 X61.912 Y130.250 F7800.000
G1 E1.00000 F1800.000
G1 X43.886 Y130.250 E1.51001 F600.000
G1 F1800.000 E0.51001
G92 E0
G1 Z6.350 F7800.000
G1 X156.327 Y130.250 F7800.000
G1 E1.00000 F1800.000
G1 X137.875 Y130.250 E1.52211 F600.000
G1 F1800.000 E0.52211
G92 E0
G1 X62.125 Y130.250 F7800.000
G1 E1.00000 F1800.000
G1 X43.673 Y130.250 E1.52211 F600.000
G1 F1800.000 E0.52211
G92 E0
G1 Z6.750 F7800.000
G1 X156.454 Y130.250 F7800.000
G1 E1.00000 F1800.000
G1 X137.748 Y130.250 E1.52928 F600.000
G1 F1800.000 E0.52928
G92 E0
G1 X62.252 Y130.250 F7800.000
G1 E1.00000 F1800.000
G1 X43.546 Y130.250 E1.52928 F600.000
G1 F1800.000 E0.52928
G92 E0
G1 Z7.150 F7800.000
G1 X156.575 Y130.250 F7800.000
G1 E1.00000 F1800.000
G1 X137.627 Y130.250 E1.53615 F600.000
G1 F1800.000 E0.53615
G92 E0
G1 X62.373 Y130.250 F7800.000
G1 E1.00000 F1800.000
G1 X43.425 Y130.250 E1.53615 F600.000
G1 F1800.000 E0.53615
G92 E0
G1 Z7.550 F7800.000
G1 X156.697 Y130.250 F7800.000
G1 E1.00000 F1800.000
G1 X137.505 Y130.250 E1.54301 F600.000
G1 F1800.000 E0.54301
G92 E0
G1 X62.495 Y130.250 F7800.000
G1 E1.00000 F1800.000
G1 X43.303 Y130.250 E1.54301 F600.000
G1 F1800.000 E0.54301
G92 E0
G1 Z7.950 F7800.000
G1 X156.818 Y130.250 F7800.000
G1 E1.00000 F1800.000
G1 X137.384 Y130.250 E1.54988 F600.000
G1 F1800.000 E0.54988
G92 E0
G1 X62.616 Y130.250 F7800.000
G1 E1.00000 F1800.000
G1 X43.182 Y130.250 E1.54988 F600.000
G1 F1800.000 E0.54988
G92 E0
G1 Z8.350 F7800.000
G1 X156.919 Y130.250 F7800.000
G1 E1.00000 F1800.000
G1 X137.283 Y130.250 E1.55558 F600.000
G1 F1800.000 E0.55558
G92 E0
G1 X62.717 Y130.250 F7800.000
G1 E1.00000 F1800.000
G1 X43.081 Y130.250 E1.55558 F600.000
G1 F1800.000 E0.55558
G92 E0
G1 Z8.750 F7800.000
G1 X156.958 Y130.250 F7800.000
G1 E1.00000 F1800.000
G1 X137.244 Y130.250 E1.55780 F600.000
G1 F1800.000 E0.55780
G92 E0
G1 X62.756 Y130.250 F7800.000
G1 E1.00000 F1800.000
G1 X43.042 Y130.250 E1.55780 F600.000
G1 F1800.000 E0.55780
G92 E0
G1 Z9.150 F7800.000
G1 X156.998 Y130.250 F7800.000
G1 E1.00000 F1800.000
G1 X137.204 Y130.250 E1.56003 F600.000
G1 F1800.000 E0.56003
G92 E0
G1 X62.796 Y130.250 F7800.000
G1 E1.00000 F1800.000
G1 X43.002 Y130.250 E1.56003 F600.000
G1 F1800.000 E0.56003
G92 E0
G1 Z9.550 F7800.000
G1 X157.037 Y130.250 F7800.000
G1 E1.00000 F1800.000
G1 X137.165 Y130.250 E1.56226 F600.000
G1 F1800.000 E0.56226
G92 E0
G1 X62.835 Y130.250 F7800.000
G1 E1.00000 F1800.000
G1 X42.963 Y130.250 E1.56226 F600.000
G1 F1800.000 E0.56226
G92 E0
G1 Z9.950 F7800.000
G1 X157.076 Y130.250 F7800.000
G1 E1.00000 F1800.000
G1 X137.126 Y130.250 E1.56449 F600.000
G1 F1800.000 E0.56449
G92 E0
G1 X62.874 Y130.250 F7800.000
G1 E1.00000 F1800.000
G1 X42.924 Y130.250 E1.56449 F600.000
G1 F1800.000 E0.56449
G92 E0
G1 Z10.350 F7800.000
G1 X157.086 Y130.250 F7800.000
G1 E1.00000 F1800.000
G1 X137.116 Y130.250 E1.56505 F600.000
G1 F1800.000 E0.56505
G92 E0
G1 X62.884 Y130.250 F7800.000
G1 E1.00000 F1800.000
G1 X42.914 Y130.250 E1.56505 F600.000
G1 F1800.000 E0.56505
G92 E0
G1 Z10.750 F7800.000
G1 X157.047 Y130.250 F7800.000
G1 E1.00000 F1800.000
G1 X137.155 Y130.250 E1.56282 F600.000
G1 F1800.000 E0.56282
G92 E0
G1 X62.845 Y130.250 F7800.000
G1 E1.00000 F1800.000
G1 X42.953 Y130.250 E1.56282 F600.000
G1 F1800.000 E0.56282
G92 E0
G1 Z11.150 F7800.000
G1 X157.007 Y130.250 F7800.000
G1 E1.00000 F1800.000
G1 X137.195 Y130.250 E1.56059 F600.000
G1 F1800.000 E0.56059
G92 E0
G1 X62.805 Y130.250 F7800.000
G1 E1.00000 F1800.000
G1 X42.993 Y130.250 E1.56059 F600.000
G1 F1800.000 E0.56059
G92 E0
G1 Z11.550 F7800.000
G1 X156.968 Y130.250 F7800.000
G1 E1.00000 F1800.000
G1 X137.234 Y130.250 E1.55836 F600.000
G1 F1800.000 E0.55836
G92 E0
G1 X62.766 Y130.250 F7800.000
G1 E1.00000 F1800.000
G1 X43.032 Y130.250 E1.55836 F600.000
G1 F1800.000 E0.55836
G92 E0
G1 Z11.950 F7800.000
G1 X156.929 Y130.250 F7800.000
G1 E1.00000 F1800.000
G1 X137.273 Y130.250 E1.55613 F600.000
G1 F1800.000 E0.55613
G92 E0
G1 X62.727 Y130.250 F7800.000
G1 E1.00000 F1800.000
G1 X43.071 Y130.250 E1.55613 F600.000
G1 F1800.000 E0.55613
G92 E0
G1 Z12.350 F7800.000
G1 X156.849 Y130.250 F7800.000
G1 E1.00000 F1800.000
G1 X137.353 Y130.250 E1.55160 F600.000
G1 F1800.000 E0.55160
G92 E0
G1 X62.647 Y130.250 F7800.000
G1 E1.00000 F1800.000
G1 X43.152 Y130.250 E1.55160 F600.000
G1 F1800.000 E0.55160
G92 E0
G1 Z12.750 F7800.000
G1 X156.727 Y130.250 F7800.000
G1 E1.00000 F1800.000
G1 X137.475 Y130.250 E1.54473 F600.000
G1 F1800.000 E0.54473
G92 E0
G1 X62.525 Y130.250 F7800.000
G1 E1.00000 F1800.000
G1 X43.273 Y130.250 E1.54473 F600.000
G1 F1800.000 E0.54473
G92 E0
G1 Z13.150 F7800.000
G1 X156.606 Y130.250 F7800.000
G1 E1.00000 F1800.000
G1 X137.596 Y130.250 E1.53786 F600.000
G1 F1800.000 E0.53786
G92 E0
G1 X62.404 Y130.250 F7800.000
G1 E1.00000 F1800.000
G1 X43.394 Y130.250 E1.53786 F600.000
G1 F1800.000 E0.53786
G92 E0
G1 Z13.550 F7800.000
G1 X62.282 Y130.250 F7800.000
G1 E1.00000 F1800.000
G1 X43.516 Y130.250 E1.53099 F600.000
G1 F1800.000 E0.53099
G92 E0
G1 X156.484 Y130.250 F7800.000
G1 E1.00000 F1800.000
G1 X137.718 Y130.250 E1.53099 F600.000
G1 F1800.000 E0.53099
G92 E0
G1 Z13.950 F7800.000
G1 X62.161 Y130.250 F7800.000
G1 E1.00000 F1800.000
G1 X43.637 Y130.250 E1.52413 F600.000
G1 F1800.000 E0.52413
G92 E0
G1 X156.363 Y130.250 F7800.000
G1 E1.00000 F1800.000
G1 X137.839 Y130.250 E1.52413 F600.000
G1 F1800.000 E0.52413
G92 E0
G1 Z14.350 F7800.000
G1 X61.965 Y130.250 F7800.000
G1 E1.00000 F1800.000
G1 X43.833 Y130.250 E1.51303 F600.000
G1 F1800.000 E0.51303
G92 E0
G1 X156.167 Y130.250 F7800.000
G1 E1.00000 F1800.000
G1 X138.035 Y130.250 E1.51303 F600.000
G1 F1800.000 E0.51303
G92 E0
G1 Z14.750 F7800.000
G1 X61.751 Y130.250 F7800.000
G1 E1.00000 F1800.000
G1 X44.047 Y130.250 E1.50093 F600.000
G1 F1800.000 E0.50093
G92 E0
G1 X155.953 Y130.250 F7800.000
G1 E1.00000 F1800.000
G1 X138.249 Y130.250 E1.50093 F600.000
G1 F1800.000 E0.50093
G92 E0
G1 Z15.150 F7800.000
G1 X61.537 Y130.250 F7800.000
G1 E1.00000 F1800.000
G1 X44.261 Y130.250 E1.48884 F600.000
G1 F1800.000 E0.48884
G92 E0
G1 X155.739 Y130.250 F7800.000
G1 E1.00000 F1800.000
G1 X138.463 Y130.250 E1.48884 F600.000
M107
G1 F1800.000 E0.48884
G92 E0
G1 Z15.550 F7800.000
G1 X140.851 Y129.300 F7800.000
G1 E1.00000 F1800.000
M106 S255
G1 X59.149 Y129.300 E3.26950 F3600.000
G1 X59.149 Y70.699 E4.89731
G1 X140.851 Y70.699 E7.16681
G1 X140.851 Y129.225 E8.79253
M107
G1 X141.351 Y129.701 F7800.000
G1 X141.351 Y129.800 E8.79536 F1800.000
G1 X138.213 Y129.800 E8.88416
M106 S255
G1 X61.787 Y129.800 E11.00708 F3600.000
M107
G1 X58.649 Y129.800 E11.09588 F1800.000
G1 X58.649 Y129.701 E11.09871
M106 S255
G1 X58.649 Y70.199 E12.75151 F3600.000
G1 X141.351 Y70.199 E15.04879
G1 X141.351 Y129.626 E16.69951
M107
G1 X141.851 Y130.300 F7800.000
G1 X138.213 Y130.300 E16.80246 F1260.000
M106 S255
G1 X61.787 Y130.300 E18.92538 F3600.000
M107
G1 X58.149 Y130.300 E19.02833 F1260.000
G1 X58.149 Y129.701 E19.04530
M106 S255
G1 X58.149 Y69.699 E20.71200 F3600.000
G1 X141.851 Y69.699 E23.03705
G1 X141.851 Y129.701 E24.70375
M107
G1 X141.851 Y130.225 E24.71860 F1260.000
G1 X141.418 Y129.451 F7800.000
G1 X57.899 Y130.250 F7800.000
G1 X44.474 Y130.250 E25.09844 F1260.000
G1 F1800.000 E24.09844
G92 E0
G1 X155.526 Y130.250 F7800.000
G1 E1.00000 F1800.000
G1 X142.101 Y130.250 E1.37984 F1260.000
G1 X140.464 Y71.046 F7800.000
M106 S255
G1 X140.504 Y71.086 E1.38141 F3600.000
G1 X140.504 Y71.866 E1.40308
G1 X139.684 Y71.046 E1.43529
G1 X138.904 Y71.046 E1.45695
G1 X140.504 Y72.646 E1.51981
G1 X140.504 Y73.426 E1.54147
G1 X138.124 Y71.046 E1.63496
G1 X137.344 Y71.046 E1.65663
G1 X140.504 Y74.206 E1.78076
G1 X140.504 Y74.986 E1.80243
G1 X136.564 Y71.046 E1.95720
G1 X135.784 Y71.046 E1.97887
G1 X140.504 Y75.766 E2.16428
G1 X140.504 Y76.546 E2.18595
G1 X135.004 Y71.046 E2.40200
G1 X134.224 Y71.046 E2.42367
G1 X140.504 Y77.326 E2.67036
G1 X140.504 Y78.106 E2.69203
G1 X133.444 Y71.046 E2.96936
G1 X132.664 Y71.046 E2.99103
G1 X140.504 Y78.886 E3.29900
G1 X140.504 Y79.666 E3.32067
G1 X131.884 Y71.046 E3.65928
G1 X131.104 Y71.046 E3.68095
G1 X140.504 Y80.446 E4.05020
G1 X140.504 Y81.226 E4.07187
G1 X130.324 Y71.046 E4.47176
G1 X129.544 Y71.046 E4.49343
G1 X140.504 Y82.006 E4.92396
G1 X140.504 Y82.786 E4.94563
G1 X128.764 Y71.046 E5.40681
G1 X127.985 Y71.046 E5.42847
G1 X140.504 Y83.566 E5.92029
G1 X140.504 Y84.346 E5.94195
G1 X127.205 Y71.046 E6.46441
G1 X126.425 Y71.046 E6.48608
G1 X140.504 Y85.126 E7.03917
G1 X140.504 Y85.906 E7.06084
G1 X125.645 Y71.046 E7.64457
G1 X124.865 Y71.046 E7.66624
G1 X140.504 Y86.686 E8.28062
G1 X140.504 Y87.466 E8.30228
G1 X124.085 Y71.046 E8.94730
G1 X123.305 Y71.046 E8.96897
G1 X140.504 Y88.246 E9.64462
G1 X140.504 Y89.026 E9.66629
G1 X122.525 Y71.046 E10.37259
G1 X121.745 Y71.046 E10.39425
G1 X140.504 Y89.806 E11.13119
G1 X140.504 Y90.586 E11.15286
G1 X120.965 Y71.046 E11.92044
G1 X120.185 Y71.046 E11.94210
G1 X140.504 Y91.366 E12.74032
G1 X140.504 Y92.146 E12.76199
G1 X119.405 Y71.046 E13.59085
G1 X118.625 Y71.046 E13.61251
G1 X140.504 Y92.926 E14.47201
G1 X140.504 Y93.706 E14.49368
G1 X117.845 Y71.046 E15.38382
G1 X117.065 Y71.046 E15.40548
G1 X140.504 Y94.486 E16.32626
G1 X140.504 Y95.266 E16.34793
G1 X116.285 Y71.046 E17.29935
G1 X115.505 Y71.046 E17.32101
G1 X140.504 Y96.046 E18.30308
G1 X140.504 Y96.826 E18.32474
G1 X114.725 Y71.046 E19.33744
G1 X113.945 Y71.046 E19.35911
G1 X140.504 Y97.606 E20.40245
G1 X140.504 Y98.385 E20.42411
G1 X113.165 Y71.046 E21.49810
G1 X112.385 Y71.046 E21.51976
G1 X140.504 Y99.165 E22.62438
G1 X140.504 Y99.945 E22.64605
G1 X111.605 Y71.046 E23.78131
G1 X110.825 Y71.046 E23.80298
G1 X140.504 Y100.725 E24.96888
G1 X140.504 Y101.505 E24.99055
G1 X110.045 Y71.046 E26.18709
G1 X109.265 Y71.046 E26.20875
G1 X140.504 Y102.285 E27.43594
G1 X140.504 Y103.065 E27.45760
G1 X108.485 Y71.046 E28.71543
G1 X107.705 Y71.046 E28.73709
G1 X140.504 Y103.845 E30.02555
G1 X140.504 Y104.625 E30.04722
G1 X106.925 Y71.046 E31.36632
G1 X106.145 Y71.046 E31.38799
G1 X140.504 Y105.405 E32.73773
G1 X140.504 Y106.185 E32.75940
G1 X105.365 Y71.046 E34.13978
G1 X104.585 Y71.046 E34.16145
G1 X140.504 Y106.965 E35.57247
G1 X140.504 Y107.745 E35.59414
G1 X103.805 Y71.046 E37.03580
G1 X103.025 Y71.046 E37.05747
G1 X140.504 Y108.525 E38.52978
G1 X140.504 Y109.305 E38.55144
G1 X102.245 Y71.046 E40.05439
G1 X101.465 Y71.046 E40.07605
G1 X140.504 Y110.085 E41.60964
G1 X140.504 Y110.865 E41.63130
G1 X100.685 Y71.046 E43.19553
G1 X99.905 Y71.046 E43.21720
G1 X140.504 Y111.645 E44.81206
G1 X140.504 Y112.425 E44.83373
G1 X99.125 Y71.046 E46.45923
G1 X98.345 Y71.046 E46.48090
G1 X140.504 Y113.205 E48.13705
G1 X140.504 Y113.985 E48.15871
G1 X97.566 Y71.046 E49.84550
G1 X96.786 Y71.046 E49.86717
G1 X140.504 Y114.765 E51.58459
G1 X140.504 Y115.545 E51.60626
G1 X96.006 Y71.046 E53.35433
G1 X95.226 Y71.046 E53.37599
G1 X140.504 Y116.325 E55.15470
G1 X140.504 Y117.105 E55.17637
G1 X94.446 Y71.046 E56.98571
G1 X93.666 Y71.046 E57.00738
G1 X140.504 Y117.885 E58.84737
