; generated by Slic3r 1.0.0RC3 on 2014-04-11 at 10:01:36

; layer_height = 0.254
; perimeters = 2
; top_solid_layers = 2
; bottom_solid_layers = 2
; fill_density = 0.35
; perimeter_speed = 35
; infill_speed = 60
; travel_speed = 130
; nozzle_diameter = 0.4
; filament_diameter = 1.75
; extrusion_multiplier = 1
; perimeters extrusion width = 0.40mm
; infill extrusion width = 0.52mm
; solid infill extrusion width = 0.52mm
; top infill extrusion width = 0.52mm
; first layer extrusion width = 0.60mm

G21 ; set units to millimeters
M104 S200 ; set temperature
G28 X0 Y0 ; home 
G29
M109 S200 ; wait for temperature to be reached
G90 ; use absolute coordinates
G92 E0
M82 ; use absolute distances for extrusion
G1 F1800.000 E-1.00000
G92 E0
G1 Z0.300 F7800.000
G1 X59.580 Y59.580 F7800.000
G1 E1.00000 F1800.000
G1 X60.740 Y58.620 E1.10462 F1260.000
G1 X62.060 Y57.910 E1.20876
G1 X63.500 Y57.480 E1.31318
G1 X65.000 Y57.330 E1.41793
G1 X84.990 Y57.330 E2.80687
G1 X86.490 Y57.480 E2.91161
G1 X87.930 Y57.910 E3.01603
G1 X89.250 Y58.620 E3.12018
G1 X90.410 Y59.580 E3.22480
G1 X91.370 Y60.740 E3.32942
G1 X92.080 Y62.060 E3.43356
G1 X92.510 Y63.500 E3.53798
G1 X92.660 Y65.000 E3.64272
G1 X92.660 Y84.990 E5.03167
G1 X92.510 Y86.490 E5.13641
G1 X92.080 Y87.930 E5.24083
G1 X91.370 Y89.250 E5.34497
G1 X90.410 Y90.410 E5.44959
G1 X89.250 Y91.370 E5.55421
G1 X87.930 Y92.080 E5.65836
G1 X86.490 Y92.510 E5.76278
G1 X84.990 Y92.660 E5.86752
G1 X65.000 Y92.660 E7.25646
G1 X63.500 Y92.510 E7.36121
G1 X62.060 Y92.080 E7.46563
G1 X60.740 Y91.370 E7.56977
G1 X59.580 Y90.410 E7.67439
G1 X58.620 Y89.250 E7.77901
G1 X57.910 Y87.930 E7.88315
G1 X57.480 Y86.490 E7.98757
G1 X57.330 Y84.990 E8.09231
G1 X57.330 Y65.000 E9.48126
G1 X57.480 Y63.500 E9.58600
G1 X57.910 Y62.060 E9.69042
G1 X58.620 Y60.740 E9.79457
G1 X59.527 Y59.644 E9.89338
G1 X59.970 Y59.970 F7800.000
G1 X61.050 Y59.080 E9.99062 F1260.000
G1 X62.280 Y58.430 E10.08728
G1 X63.610 Y58.020 E10.18398
G1 X65.000 Y57.890 E10.28098
G1 X84.990 Y57.890 E11.66993
G1 X86.380 Y58.020 E11.76693
G1 X87.710 Y58.430 E11.86363
G1 X88.940 Y59.080 E11.96030
G1 X90.020 Y59.970 E12.05753
G1 X90.910 Y61.050 E12.15477
G1 X91.560 Y62.280 E12.25143
G1 X91.970 Y63.610 E12.34814
G1 X92.100 Y65.000 E12.44514
G1 X92.100 Y84.990 E13.83408
G1 X91.970 Y86.380 E13.93109
G1 X91.560 Y87.710 E14.02779
G1 X90.910 Y88.940 E14.12445
G1 X90.020 Y90.020 E14.22169
G1 X88.940 Y90.910 E14.31893
G1 X87.710 Y91.560 E14.41559
G1 X86.380 Y91.970 E14.51229
G1 X84.990 Y92.100 E14.60929
G1 X65.000 Y92.100 E15.99824
G1 X63.610 Y91.970 E16.09524
G1 X62.280 Y91.560 E16.19194
G1 X61.050 Y90.910 E16.28860
G1 X59.970 Y90.020 E16.38584
G1 X59.080 Y88.940 E16.48308
G1 X58.430 Y87.710 E16.57974
G1 X58.020 Y86.380 E16.67644
G1 X57.890 Y84.990 E16.77345
G1 X57.890 Y65.000 E18.16239
G1 X58.020 Y63.610 E18.25939
G1 X58.430 Y62.280 E18.35610
G1 X59.080 Y61.050 E18.45276
G1 X59.917 Y60.034 E18.54419
G1 X60.360 Y60.360 F7800.000
G1 X61.360 Y59.550 E18.63361 F1260.000
G1 X62.490 Y58.940 E18.72283
G1 X63.720 Y58.570 E18.81208
G1 X65.000 Y58.440 E18.90147
G1 X84.990 Y58.440 E20.29042
G1 X86.270 Y58.570 E20.37981
G1 X87.500 Y58.940 E20.46906
G1 X88.630 Y59.550 E20.55828
G1 X89.630 Y60.360 E20.64770
G1 X90.440 Y61.360 E20.73711
G1 X91.050 Y62.490 E20.82634
G1 X91.420 Y63.720 E20.91558
G1 X91.550 Y65.000 E21.00498
G1 X91.550 Y84.990 E22.39392
G1 X91.420 Y86.270 E22.48332
G1 X91.050 Y87.500 E22.57256
G1 X90.440 Y88.630 E22.66179
G1 X89.630 Y89.630 E22.75120
G1 X88.630 Y90.440 E22.84062
G1 X87.500 Y91.050 E22.92985
G1 X86.270 Y91.420 E23.01909
G1 X84.990 Y91.550 E23.10849
G1 X65.000 Y91.550 E24.49743
G1 X63.720 Y91.420 E24.58683
G1 X62.490 Y91.050 E24.67607
G1 X61.360 Y90.440 E24.76530
G1 X60.360 Y89.630 E24.85471
G1 X59.550 Y88.630 E24.94413
G1 X58.940 Y87.500 E25.03335
G1 X58.570 Y86.270 E25.12260
G1 X58.440 Y84.990 E25.21199
G1 X58.440 Y65.000 E26.60094
G1 X58.570 Y63.720 E26.69033
G1 X58.940 Y62.490 E26.77958
G1 X59.550 Y61.360 E26.86880
G1 X60.307 Y60.425 E26.95241
G1 F1800.000 E25.95241
G92 E0
G1 X65.857 Y65.857 F7800.000
G1 E1.00000 F1800.000
G1 X84.143 Y65.857 E2.27054 F1260.000
G1 X84.143 Y84.143 E3.54107
G1 X65.857 Y84.143 E4.81161
G1 X65.857 Y65.941 E6.07634
G1 X65.300 Y65.300 F7800.000
G1 X84.700 Y65.300 E7.42429 F882.000
G1 X84.700 Y84.700 E8.77224
G1 X65.300 Y84.700 E10.12019
G1 X65.300 Y65.384 E11.46234
G1 X65.782 Y65.579 F7800.000
G1 X83.729 Y66.251 F7800.000
G1 X83.749 Y66.271 E11.46432 F2160.000
G1 X83.749 Y67.065 E11.51998
G1 X82.935 Y66.251 E11.60068
G1 X82.140 Y66.251 E11.65635
G1 X83.749 Y67.860 E11.81577
G1 X83.749 Y68.654 E11.87144
G1 X81.346 Y66.251 E12.10958
G1 X80.551 Y66.251 E12.16525
G1 X83.749 Y69.449 E12.48212
G1 X83.749 Y70.243 E12.53778
G1 X79.757 Y66.251 E12.93337
G1 X78.962 Y66.251 E12.98904
G1 X83.749 Y71.038 E13.46335
G1 X83.749 Y71.832 E13.51902
G1 X78.168 Y66.251 E14.07205
G1 X77.373 Y66.251 E14.12772
G1 X83.749 Y72.627 E14.75948
G1 X83.749 Y73.421 E14.81514
G1 X76.579 Y66.251 E15.52562
G1 X75.784 Y66.251 E15.58129
G1 X83.749 Y74.216 E16.37049
G1 X83.749 Y75.010 E16.42616
G1 X74.990 Y66.251 E17.29409
G1 X74.196 Y66.251 E17.34975
G1 X83.749 Y75.804 E18.29640
G1 X83.749 Y76.599 E18.35207
G1 X73.401 Y66.251 E19.37744
G1 X72.607 Y66.251 E19.43310
G1 X83.749 Y77.393 E20.53720
G1 X83.749 Y78.188 E20.59286
G1 X71.812 Y66.251 E21.77568
G1 X71.018 Y66.251 E21.83135
G1 X83.749 Y78.982 E23.09289
G1 X83.749 Y79.777 E23.14855
G1 X70.223 Y66.251 E24.48882
G1 X69.429 Y66.251 E24.54448
G1 X83.749 Y80.571 E25.96347
G1 X83.749 Y81.366 E26.01913
G1 X68.634 Y66.251 E27.51684
G1 X67.840 Y66.251 E27.57251
G1 X83.749 Y82.160 E29.14894
G1 X83.749 Y82.955 E29.20460
G1 X67.045 Y66.251 E30.85976
G1 X66.261 Y66.261 E30.91473
G1 X83.739 Y83.739 E32.64662
G1 X82.955 Y83.749 E32.70159
G1 X66.251 Y67.045 E34.35675
G1 X66.251 Y67.840 E34.41241
G1 X82.160 Y83.749 E35.98885
G1 X81.366 Y83.749 E36.04451
G1 X66.251 Y68.634 E37.54223
G1 X66.251 Y69.429 E37.59789
G1 X80.571 Y83.749 E39.01688
G1 X79.777 Y83.749 E39.07255
G1 X66.251 Y70.223 E40.41281
G1 X66.251 Y71.018 E40.46848
G1 X78.982 Y83.749 E41.73002
G1 X78.188 Y83.749 E41.78569
G1 X66.251 Y71.812 E42.96851
G1 X66.251 Y72.607 E43.02417
G1 X77.393 Y83.749 E44.12827
G1 X76.599 Y83.749 E44.18394
G1 X66.251 Y73.401 E45.20932
G1 X66.251 Y74.196 E45.26498
G1 X75.804 Y83.749 E46.21163
G1 X75.010 Y83.749 E46.26730
G1 X66.251 Y74.990 E47.13523
G1 X66.251 Y75.784 E47.19090
G1 X74.216 Y83.749 E47.98010
G1 X73.421 Y83.749 E48.03577
G1 X66.251 Y76.579 E48.74626
G1 X66.251 Y77.373 E48.80192
G1 X72.627 Y83.749 E49.43368
G1 X71.832 Y83.749 E49.48935
G1 X66.251 Y78.168 E50.04239
G1 X66.251 Y78.962 E50.09806
G1 X71.038 Y83.749 E50.57237
G1 X70.243 Y83.749 E50.62804
G1 X66.251 Y79.757 E51.02363
G1 X66.251 Y80.551 E51.07930
G1 X69.449 Y83.749 E51.39617
G1 X68.654 Y83.749 E51.45184
G1 X66.251 Y81.346 E51.68999
G1 X66.251 Y82.140 E51.74565
G1 X67.860 Y83.749 E51.90508
G1 X67.065 Y83.749 E51.96074
G1 X66.251 Y82.935 E52.04145
G1 X66.251 Y83.729 E52.09711
G1 X66.271 Y83.749 E52.09910
M106 S255
G1 F1800.000 E51.09910
G92 E0
G1 Z0.554 F7800.000
G1 X65.854 Y84.400 F7800.000
G1 E1.00000 F1800.000
G1 X65.600 Y84.400 E1.01073 F2100
G1 X65.600 Y65.600 E1.80485
G1 X84.400 Y65.600 E2.59897
G1 X84.400 Y84.400 E3.39308
G1 X65.914 Y84.400 E4.17394
G1 X65.854 Y84.800 F7800.000
G1 X65.200 Y84.800 E4.20157 F1470
G1 X65.200 Y65.200 E5.02948
G1 X84.800 Y65.200 E5.85739
G1 X84.800 Y84.800 E6.68530
G1 X65.914 Y84.800 E7.48305
G1 X65.654 Y84.454 F7800.000
G1 X84.099 Y84.079 F7800.000
G1 X84.079 Y84.099 E7.48455 F3600
G1 X83.366 Y84.099 E7.52250
G1 X84.099 Y83.366 E7.57766
G1 X84.099 Y82.653 E7.61561
G1 X82.653 Y84.099 E7.72443
G1 X81.940 Y84.099 E7.76238
G1 X84.099 Y81.940 E7.92486
G1 X84.099 Y81.227 E7.96281
G1 X81.227 Y84.099 E8.17895
G1 X80.514 Y84.099 E8.21689
G1 X84.099 Y80.515 E8.48670
G1 X84.099 Y79.802 E8.52464
G1 X79.802 Y84.099 E8.84811
G1 X79.089 Y84.099 E8.88605
G1 X84.099 Y79.089 E9.26318
G1 X84.099 Y78.376 E9.30112
G1 X78.376 Y84.099 E9.73191
G1 X77.663 Y84.099 E9.76985
G1 X84.099 Y77.663 E10.25430
G1 X84.099 Y76.950 E10.29224
G1 X76.950 Y84.099 E10.83035
G1 X76.237 Y84.099 E10.86829
G1 X84.099 Y76.237 E11.46006
G1 X84.099 Y75.525 E11.49800
G1 X75.525 Y84.099 E12.14342
G1 X74.812 Y84.099 E12.18137
G1 X84.099 Y74.812 E12.88045
G1 X84.099 Y74.099 E12.91840
G1 X74.099 Y84.099 E13.67114
G1 X73.386 Y84.099 E13.70909
G1 X84.099 Y73.386 E14.51549
G1 X84.099 Y72.673 E14.55344
G1 X72.673 Y84.099 E15.41350
G1 X71.960 Y84.099 E15.45145
G1 X84.099 Y71.960 E16.36517
G1 X84.099 Y71.248 E16.40311
G1 X71.248 Y84.099 E17.37050
G1 X70.535 Y84.099 E17.40844
G1 X84.099 Y70.535 E18.42949
G1 X84.099 Y69.822 E18.46743
G1 X69.822 Y84.099 E19.54214
G1 X69.109 Y84.099 E19.58008
G1 X84.099 Y69.109 E20.70845
G1 X84.099 Y68.396 E20.74639
G1 X68.396 Y84.099 E21.92842
G1 X67.683 Y84.099 E21.96636
G1 X84.099 Y67.683 E23.20205
G1 X84.099 Y66.971 E23.23999
G1 X66.971 Y84.099 E24.52934
G1 X66.258 Y84.099 E24.56728
G1 X84.099 Y66.258 E25.91029
G1 X83.742 Y65.901 E25.93712
G1 X65.901 Y83.742 E27.28012
G1 X65.901 Y83.029 E27.31807
G1 X83.029 Y65.901 E28.60741
G1 X82.317 Y65.901 E28.64536
G1 X65.901 Y82.317 E29.88104
G1 X65.901 Y81.604 E29.91899
G1 X81.604 Y65.901 E31.10101
G1 X80.891 Y65.901 E31.13895
G1 X65.901 Y80.891 E32.26732
G1 X65.901 Y80.178 E32.30526
G1 X80.178 Y65.901 E33.37997
G1 X79.465 Y65.901 E33.41791
G1 X65.901 Y79.465 E34.43896
G1 X65.901 Y78.752 E34.47690
G1 X78.752 Y65.901 E35.44429
G1 X78.040 Y65.901 E35.48223
G1 X65.901 Y78.040 E36.39596
G1 X65.901 Y77.327 E36.43390
G1 X77.327 Y65.901 E37.29397
G1 X76.614 Y65.901 E37.33191
G1 X65.901 Y76.614 E38.13831
G1 X65.901 Y75.901 E38.17626
G1 X75.901 Y65.901 E38.92900
G1 X75.188 Y65.901 E38.96695
G1 X65.901 Y75.188 E39.66603
G1 X65.901 Y74.475 E39.70398
G1 X74.475 Y65.901 E40.34940
G1 X73.763 Y65.901 E40.38735
G1 X65.901 Y73.763 E40.97911
G1 X65.901 Y73.050 E41.01705
G1 X73.050 Y65.901 E41.55516
G1 X72.337 Y65.901 E41.59310
G1 X65.901 Y72.337 E42.07755
G1 X65.901 Y71.624 E42.11549
G1 X71.624 Y65.901 E42.54628
G1 X70.911 Y65.901 E42.58422
G1 X65.901 Y70.911 E42.96135
G1 X65.901 Y70.198 E42.99929
G1 X70.198 Y65.901 E43.32276
G1 X69.485 Y65.901 E43.36070
G1 X65.901 Y69.485 E43.63050
G1 X65.901 Y68.773 E43.66845
G1 X68.773 Y65.901 E43.88459
G1 X68.060 Y65.901 E43.92254
G1 X65.901 Y68.060 E44.08502
G1 X65.901 Y67.347 E44.12297
G1 X67.347 Y65.901 E44.23179
G1 X66.634 Y65.901 E44.26973
G1 X65.901 Y66.634 E44.32490
G1 X65.901 Y65.921 E44.36284
G1 X65.921 Y65.901 E44.36435
G1 F1800.000 E43.36435
G92 E0
G1 Z0.808 F7800.000
G1 X65.600 Y65.600 F7800.000
G1 E1.00000 F1800.000
G1 X84.400 Y65.600 E1.79412 F2100
G1 X84.400 Y84.400 E2.58824
G1 X65.600 Y84.400 E3.38236
G1 X65.600 Y65.660 E4.17394
G1 X65.200 Y65.200 F7800.000
G1 X84.800 Y65.200 E5.00185 F1470
G1 X84.800 Y84.800 E5.82976
G1 X65.200 Y84.800 E6.65767
G1 X65.200 Y65.260 E7.48305
G1 X65.546 Y65.400 F7800.000
G1 X84.099 Y66.405 F7800.000
G1 X83.595 Y65.901 E7.52025 F3600
G1 X81.596 Y65.901 E7.62469
G1 X84.099 Y68.404 E7.80960
G1 X84.099 Y70.403 E7.91404
G1 X79.597 Y65.901 E8.24665
G1 X77.598 Y65.901 E8.35109
G1 X84.099 Y72.402 E8.83139
G1 X84.099 Y74.401 E8.93583
G1 X75.599 Y65.901 E9.56384
G1 X73.600 Y65.901 E9.66828
G1 X84.099 Y76.400 E10.44399
G1 X84.099 Y78.399 E10.54843
G1 X71.601 Y65.901 E11.47184
G1 X69.602 Y65.901 E11.57628
G1 X84.099 Y80.398 E12.64739
G1 X84.099 Y82.397 E12.75183
G1 X67.603 Y65.901 E13.97064
G1 X65.901 Y66.199 E14.06088
G1 X83.801 Y84.099 E15.38341
G1 X81.802 Y84.099 E15.48785
G1 X65.901 Y68.198 E16.66268
G1 X65.901 Y70.197 E16.76712
G1 X79.803 Y84.099 E17.79425
G1 X77.804 Y84.099 E17.89869
G1 X65.901 Y72.196 E18.77813
G1 X65.901 Y74.195 E18.88257
G1 X75.805 Y84.099 E19.61430
G1 X73.806 Y84.099 E19.71874
G1 X65.901 Y76.194 E20.30277
G1 X65.901 Y78.193 E20.40721
G1 X71.807 Y84.099 E20.84354
G1 X69.808 Y84.099 E20.94798
G1 X65.901 Y80.192 E21.23661
G1 X65.901 Y82.191 E21.34105
G1 X67.809 Y84.099 E21.48197
G1 F1800.000 E20.48197
G92 E0
G1 Z1.062 F7800.000
G1 X66.870 Y84.400 F7800.000
G1 E1.00000 F1800.000
G1 X65.600 Y84.400 E1.05365 F2100
G1 X65.600 Y65.600 E1.84776
G1 X84.400 Y65.600 E2.64188
G1 X84.400 Y84.400 E3.43600
G1 X66.930 Y84.400 E4.17394
G1 X66.870 Y84.800 F7800.000
G1 X65.200 Y84.800 E4.24448 F1470
G1 X65.200 Y65.200 E5.07239
G1 X84.800 Y65.200 E5.90030
G1 X84.800 Y84.800 E6.72821
G1 X66.930 Y84.800 E7.48305
G1 X66.670 Y84.454 F7800.000
G1 X84.099 Y82.191 F7800.000
G1 X82.191 Y84.099 E7.62398 F3600
G1 X80.192 Y84.099 E7.72842
G1 X84.099 Y80.192 E8.01705
G1 X84.099 Y78.193 E8.12149
G1 X78.193 Y84.099 E8.55782
G1 X76.194 Y84.099 E8.66226
G1 X84.099 Y76.194 E9.24629
G1 X84.099 Y74.195 E9.35073
G1 X74.195 Y84.099 E10.08246
G1 X72.196 Y84.099 E10.18690
G1 X84.099 Y72.196 E11.06633
G1 X84.099 Y70.197 E11.17077
G1 X70.197 Y84.099 E12.19790
G1 X68.198 Y84.099 E12.30234
G1 X84.099 Y68.198 E13.47717
G1 X84.099 Y66.199 E13.58161
G1 X66.199 Y84.099 E14.90414
G1 X65.901 Y82.397 E14.99438
G1 X82.397 Y65.901 E16.21319
G1 X80.398 Y65.901 E16.31763
G1 X65.901 Y80.398 E17.38874
G1 X65.901 Y78.399 E17.49318
G1 X78.399 Y65.901 E18.41659
G1 X76.400 Y65.901 E18.52103
G1 X65.901 Y76.400 E19.29674
G1 X65.901 Y74.401 E19.40118
G1 X74.401 Y65.901 E20.02919
G1 X72.402 Y65.901 E20.13363
G1 X65.901 Y72.402 E20.61393
G1 X65.901 Y70.403 E20.71837
G1 X70.403 Y65.901 E21.05098
G1 X68.404 Y65.901 E21.15542
G1 X65.901 Y68.404 E21.34033
G1 X65.901 Y66.405 E21.44477
G1 X66.405 Y65.901 E21.48197
G1 F1800.000 E20.48197
G92 E0
G1 Z1.316 F7800.000
G1 X65.600 Y65.600 F7800.000
G1 E1.00000 F1800.000
G1 X84.400 Y65.600 E1.79412 F2100
G1 X84.400 Y84.400 E2.58824
G1 X65.600 Y84.400 E3.38236
G1 X65.600 Y65.660 E4.17394
G1 X65.200 Y65.200 F7800.000
G1 X84.800 Y65.200 E5.00185 F1470
G1 X84.800 Y84.800 E5.82976
G1 X65.200 Y84.800 E6.65767
G1 X65.200 Y65.260 E7.48305
G1 X65.546 Y65.400 F7800.000
G1 X84.099 Y66.405 F7800.000
G1 X83.595 Y65.901 E7.52025 F3600
G1 X81.596 Y65.901 E7.62469
G1 X84.099 Y68.404 E7.80960
G1 X84.099 Y70.403 E7.91404
G1 X79.597 Y65.901 E8.24665
G1 X77.598 Y65.901 E8.35109
G1 X84.099 Y72.402 E8.83139
G1 X84.099 Y74.401 E8.93583
G1 X75.599 Y65.901 E9.56384
G1 X73.600 Y65.901 E9.66828
G1 X84.099 Y76.400 E10.44399
G1 X84.099 Y78.399 E10.54843
G1 X71.601 Y65.901 E11.47184
G1 X69.602 Y65.901 E11.57628
G1 X84.099 Y80.398 E12.64739
G1 X84.099 Y82.397 E12.75183
G1 X67.603 Y65.901 E13.97063
G1 X65.901 Y66.199 E14.06088
G1 X83.801 Y84.099 E15.38341
G1 X81.802 Y84.099 E15.48785
G1 X65.901 Y68.198 E16.66268
G1 X65.901 Y70.197 E16.76712
G1 X79.803 Y84.099 E17.79425
G1 X77.804 Y84.099 E17.89869
G1 X65.901 Y72.196 E18.77812
G1 X65.901 Y74.195 E18.88256
G1 X75.805 Y84.099 E19.61430
G1 X73.806 Y84.099 E19.71874
G1 X65.901 Y76.194 E20.30277
G1 X65.901 Y78.193 E20.40721
G1 X71.807 Y84.099 E20.84354
G1 X69.808 Y84.099 E20.94798
G1 X65.901 Y80.192 E21.23660
G1 X65.901 Y82.191 E21.34104
G1 X67.809 Y84.099 E21.48197
G1 F1800.000 E20.48197
G92 E0
G1 Z1.570 F7800.000
G1 X67.886 Y84.400 F7800.000
G1 E1.00000 F1800.000
G1 X65.600 Y84.400 E1.09656 F2100
G1 X65.600 Y65.600 E1.89068
G1 X84.400 Y65.600 E2.68480
G1 X84.400 Y84.400 E3.47892
G1 X67.946 Y84.400 E4.17394
G1 X67.886 Y84.800 F7800.000
G1 X65.200 Y84.800 E4.28740 F1470
G1 X65.200 Y65.200 E5.11531
G1 X84.800 Y65.200 E5.94322
G1 X84.800 Y84.800 E6.77113
G1 X67.946 Y84.800 E7.48305
G1 X67.686 Y84.454 F7800.000
G1 X84.099 Y82.191 F7800.000
G1 X82.191 Y84.099 E7.62398 F3600
G1 X80.192 Y84.099 E7.72842
G1 X84.099 Y80.192 E8.01705
G1 X84.099 Y78.193 E8.12149
G1 X78.193 Y84.099 E8.55782
G1 X76.194 Y84.099 E8.66226
G1 X84.099 Y76.194 E9.24629
G1 X84.099 Y74.195 E9.35073
G1 X74.195 Y84.099 E10.08246
G1 X72.196 Y84.099 E10.18690
G1 X84.099 Y72.196 E11.06633
G1 X84.099 Y70.197 E11.17077
G1 X70.197 Y84.099 E12.19790
G1 X68.198 Y84.099 E12.30234
G1 X84.099 Y68.198 E13.47717
G1 X84.099 Y66.199 E13.58161
G1 X66.199 Y84.099 E14.90414
G1 X65.901 Y82.397 E14.99438
G1 X82.397 Y65.901 E16.21319
G1 X80.398 Y65.901 E16.31763
G1 X65.901 Y80.398 E17.38874
G1 X65.901 Y78.399 E17.49318
G1 X78.399 Y65.901 E18.41659
G1 X76.400 Y65.901 E18.52103
